dist/svg/chart-donut.svg

<svg width="16" height="16" viewBox="0 0 16 16" fill="rgb(34, 34, 34)" xmlns="http://www.w3.org/2000/svg"><title>chart-donut</title><path d="M15 8.00002V8.00202C15 10.007 14.154 11.814 12.8 13.086L12.796 13.089L10.666 10.959C11.485 10.238 11.999 9.18802 11.999 8.01702C11.999 7.34102 11.827 6.70402 11.525 6.14902L11.535 6.17002L13.725 3.98002C14.522 5.09702 14.999 6.49002 14.999 7.99402C14.999 7.99602 14.999 7.99702 14.999 7.99902L15 8.00002ZM9.82901 11.536C9.29901 11.824 8.67001 11.995 8.00101 12H8.00001C7.99701 12 7.99401 12 7.99101 12C5.78701 12 3.99901 10.213 3.99901 8.00802C3.99901 6.15602 5.26101 4.59802 6.97101 4.14802L6.99901 4.14202V1.08002C3.58601 1.58302 0.997009 4.49202 0.997009 8.00502C0.997009 11.869 4.12901 15.001 7.99301 15.001C9.50101 15.001 10.897 14.524 12.04 13.712L12.018 13.727L9.82901 11.536ZM8.00001 4.00002C9.17501 4.00302 10.23 4.51602 10.956 5.32902L10.959 5.33302L13.089 3.20302C11.814 1.84502 10.007 0.999023 8.00201 0.999023H8.00001V4.00002Z" fill="rgb(34, 34, 34)" fill-opacity="1.00"/></svg>

<!-- Generated by Trend Micro Style Portal -->
<svg version="1.1" xmlns="http://www.w3.org/2000/svg" width="16" height="16" viewBox="0 0 16 16">
  <title>chart-donut</title>
  <path fill="rgb(34,34,34)" d="M15 8c0 0.001 0 0.001 0 0.002 0 2.005-0.846 3.812-2.2 5.084l-0.004 0.003-2.13-2.13c0.819-0.721 1.333-1.771 1.333-2.942 0-0.676-0.172-1.313-0.474-1.868l0.010 0.021 2.19-2.19c0.797 1.117 1.274 2.51 1.274 4.014 0 0.002 0 0.003 0 0.005v-0zM9.829 11.536c-0.53 0.288-1.159 0.459-1.828 0.464l-0.001 0c-0.003 0-0.006 0-0.009 0-2.204 0-3.992-1.787-3.992-3.992 0-1.852 1.262-3.41 2.972-3.86l0.028-0.006v-3.062c-3.413 0.503-6.002 3.412-6.002 6.925 0 3.864 3.132 6.996 6.996 6.996 1.508 0 2.904-0.477 4.047-1.289l-0.022 0.015zM8 4c1.175 0.003 2.23 0.516 2.956 1.329l0.003 0.004 2.13-2.13c-1.275-1.358-3.082-2.204-5.087-2.204-0.001 0-0.002 0-0.002 0h0z"></path>
</svg>
